public/logos/featured/elpais.svg

<svg width="82" height="16" viewBox="0 0 82 16" fill="none" xmlns="http://www.w3.org/2000/svg">
<path d="M0.831635 15.4483V13.7876H2.04874C2.7897 13.7876 3.20074 13.5625 3.20074 12.2141V3.47034C3.20074 2.50814 2.94088 2.21407 1.81039 2.21407H0.831635V0.551724H15.1765V6.48276H13.5654C13.241 3.42786 12.9806 2.21462 10.0692 2.21462H6.24129V6.88993H7.39329C8.69977 6.88993 9.28515 6.21352 9.28515 4.39338V4.09986H10.8956V11.605H9.2846V11.0687C9.2846 9.248 8.69977 8.55062 7.39329 8.55062H6.24129V13.7881H10.5889C12.59 13.7881 13.3696 12.5037 13.5649 9.15917H15.1765V15.4483H0.831635ZM16.2799 15.4483V13.7876H17.6918C18.308 13.7876 18.7296 13.5625 18.7296 12.7967V3.18124C18.7296 2.50814 18.4399 2.21572 17.5599 2.21572H16.2805V0.551724H24.356V2.21462H23.1202C22.1519 2.21462 21.8181 2.44083 21.8181 3.22703V13.8091H25.4159C27.689 13.8091 28.2396 12.5286 28.4416 9.04441H30.073V15.4483H16.2799ZM34.4868 15.4472V13.7876H35.892C36.3996 13.7876 36.8372 13.6088 36.8372 13.0218V2.97655C36.8372 2.39283 36.3996 2.21407 35.892 2.21407H34.4868V0.551724H43.097C46.393 0.551724 48.2799 2.10483 48.2799 4.64055C48.2799 7.40579 46.3047 8.70786 43.3602 8.70786H39.9147V13.0223C39.9147 13.6094 40.4625 13.7881 40.9663 13.7881H42.3715V15.4483H34.4868V15.4472ZM39.9141 7.04441H41.9114C43.977 7.04441 45.0755 6.39393 45.0755 4.66648C45.0755 2.93462 44.196 2.21517 41.9108 2.21517H39.9136V7.04441H39.9141ZM45.5213 15.4483H52.2816V13.7876H50.5933C50.1795 13.7876 49.8981 13.6949 49.8981 13.3837C49.8981 13.1801 49.9423 13.0439 49.9842 12.912L50.697 10.6615H55.614L56.3296 12.912C56.3726 13.0439 56.4156 13.248 56.4156 13.4521C56.4156 13.6739 56.2429 13.7881 55.7464 13.7881H54.0327V15.4483H68.6937V13.7876H67.4374C66.7036 13.7876 66.3754 13.4058 66.3754 12.6863V3.29159C66.3754 2.44028 67.0485 2.21407 67.7398 2.21407H68.6937V0.551724H61.0275V2.21462H62.2407C63.0865 2.21462 63.3442 2.66152 63.3442 3.22703V12.9799C63.3442 13.563 62.9994 13.7881 62.1094 13.7881H61.5698C60.4223 13.7881 59.6874 13.6314 59.2951 12.5721L54.9668 0.551724H51.9323L47.796 12.5721C47.4286 13.6314 46.6694 13.7881 45.5218 13.7881L45.5213 15.4483ZM54.9889 9.00193H51.3276L53.0628 3.58455H53.1014L54.9883 9.00193H54.9889ZM79.8976 0.457931H81.1412V6.1931H79.5985C79.0854 3.71035 77.7348 1.936 75.1831 1.936C73.1869 1.936 72.3709 2.48331 72.3709 3.98676C72.3709 7.39972 81.9351 4.85297 81.9351 11.1994C81.9351 14.8188 79.2763 16 76.2727 16C74.6656 16 73.0584 15.2717 71.8148 14.203L71.3447 15.5437H69.8838V9.37765H71.4727C71.7718 12.4281 73.529 14.0651 76.5745 14.0651C78.4592 14.0651 79.3607 13.1299 79.3607 12.0397C79.3607 8.14841 69.7972 11.083 69.7972 4.576C69.7972 1.36607 72.5194 0 75.1169 0C76.7456 0 78.1171 0.796138 79.1903 1.59338L79.8976 0.457931V0.457931Z" fill="#C1C7D0"/>
</svg>

<?xml version="1.0" encoding="utf-8"?>
<!-- Generator: Adobe Illustrator 26.3.1, SVG Export Plug-In . SVG Version: 6.00 Build 0)  -->
<svg version="1.1" id="Layer_1" xmlns="http://www.w3.org/2000/svg" xmlns:xlink="http://www.w3.org/1999/xlink" x="0px" y="0px"
	 viewBox="0 0 82 16" style="enable-background:new 0 0 82 16;" xml:space="preserve">
<style type="text/css">
	.st0{fill:#AEAEB3;}
</style>
<path class="st0" d="M0.8,15.4v-1.7H2c0.7,0,1.2-0.2,1.2-1.6V3.5c0-1-0.3-1.3-1.4-1.3h-1V0.6h14.3v5.9h-1.6
	c-0.3-3.1-0.6-4.3-3.5-4.3H6.2v4.7h1.2c1.3,0,1.9-0.7,1.9-2.5V4.1h1.6v7.5H9.3v-0.5c0-1.8-0.6-2.5-1.9-2.5H6.2v5.2h4.3
	c2,0,2.8-1.3,3-4.6h1.6v6.3H0.8z M16.3,15.4v-1.7h1.4c0.6,0,1-0.2,1-1V3.2c0-0.7-0.3-1-1.2-1h-1.3V0.6h8.1v1.7h-1.2
	c-1,0-1.3,0.2-1.3,1v10.6h3.6c2.3,0,2.8-1.3,3-4.8h1.6v6.4H16.3z M34.5,15.4v-1.7h1.4c0.5,0,0.9-0.2,0.9-0.8V3
	c0-0.6-0.4-0.8-0.9-0.8h-1.4V0.6h8.6c3.3,0,5.2,1.6,5.2,4.1c0,2.8-2,4.1-4.9,4.1h-3.4V13c0,0.6,0.5,0.8,1.1,0.8h1.4v1.7L34.5,15.4
	L34.5,15.4z M39.9,7h2c2.1,0,3.2-0.7,3.2-2.4c0-1.7-0.9-2.5-3.2-2.5h-2L39.9,7L39.9,7z M45.5,15.4h6.8v-1.7h-1.7
	c-0.4,0-0.7-0.1-0.7-0.4c0-0.2,0-0.3,0.1-0.5l0.7-2.3h4.9l0.7,2.3c0,0.1,0.1,0.3,0.1,0.5c0,0.2-0.2,0.3-0.7,0.3H54v1.7h14.7v-1.7
	h-1.3c-0.7,0-1.1-0.4-1.1-1.1V3.3c0-0.9,0.7-1.1,1.4-1.1h1V0.6H61v1.7h1.2c0.8,0,1.1,0.4,1.1,1V13c0,0.6-0.3,0.8-1.2,0.8h-0.5
	c-1.1,0-1.9-0.2-2.3-1.2L55,0.6h-3l-4.1,12c-0.4,1.1-1.1,1.2-2.3,1.2L45.5,15.4z M55,9h-3.7l1.7-5.4h0L55,9L55,9z M79.9,0.5h1.2v5.7
	h-1.5c-0.5-2.5-1.9-4.3-4.4-4.3c-2,0-2.8,0.5-2.8,2.1c0,3.4,9.6,0.9,9.6,7.2c0,3.6-2.7,4.8-5.7,4.8c-1.6,0-3.2-0.7-4.5-1.8l-0.5,1.3
	h-1.5V9.4h1.6c0.3,3.1,2.1,4.7,5.1,4.7c1.9,0,2.8-0.9,2.8-2c0-3.9-9.6-1-9.6-7.5c0-3.2,2.7-4.6,5.3-4.6c1.6,0,3,0.8,4.1,1.6
	L79.9,0.5L79.9,0.5z"/>
</svg>
